_includes/icons/ios-box.svg

<svg fill="#666" height="50" viewBox="0 0 50 50" width="50" xmlns="http://www.w3.org/2000/svg"><path d="m1 3v12h2v33h44v-33h2v-12zm2 2h44v8h-44zm2 10h40v31h-40zm12.5 4c-1.921875 0-3.5 1.578125-3.5 3.5s1.578125 3.5 3.5 3.5h15c1.921875 0 3.5-1.578125 3.5-3.5s-1.578125-3.5-3.5-3.5zm0 2h15c.839844 0 1.5.660156 1.5 1.5s-.660156 1.5-1.5 1.5h-15c-.839844 0-1.5-.660156-1.5-1.5s.660156-1.5 1.5-1.5z"/></svg>

<svg xmlns="http://www.w3.org/2000/svg" viewBox="0 0 50 50" width="50" height="50" fill="#666"><path d="M 1 3 L 1 15 L 3 15 L 3 48 L 47 48 L 47 15 L 49 15 L 49 3 Z M 3 5 L 47 5 L 47 13 L 3 13 Z M 5 15 L 45 15 L 45 46 L 5 46 Z M 17.5 19 C 15.578125 19 14 20.578125 14 22.5 C 14 24.421875 15.578125 26 17.5 26 L 32.5 26 C 34.421875 26 36 24.421875 36 22.5 C 36 20.578125 34.421875 19 32.5 19 Z M 17.5 21 L 32.5 21 C 33.339844 21 34 21.660156 34 22.5 C 34 23.339844 33.339844 24 32.5 24 L 17.5 24 C 16.660156 24 16 23.339844 16 22.5 C 16 21.660156 16.660156 21 17.5 21 Z"/></svg>
